X: 1
T: Peter And Doreen Chiasson
M: 4/4
L: 1/8
R: strathspey
K: Dmaj
F<G|A2A>F G>FE<F|D2d2 d2e<f|g2g>e g>fe<d|c2e2 e2F<G|
A2A>B A>GF<E|D2d2 d2e<f|g>eg<b a>gf<e|d2D2 D2:|
f<g|a2a>d g>fe<d|B2d2 d2d>B|A>FA<d f<ag>f|e4 e2f<g|
a2a>d g>fe<d|B2d2 d2d>B|A>FA<d e2(3ABc|d2D2 D2f<g|
a2a>d g>fe<d|B2d2 d2d>B|A>FA<d f<ag>f|e4 e2F<G|
A2A>B A>GF<E|D2d2 d2e<f|g>eg<b a>gf<e|d2D2 D2||
